images/3234582.svg

<?xml version="1.0" encoding="UTF-8"?>
<svg xmlns="http://www.w3.org/2000/svg" xmlns:xlink="http://www.w3.org/1999/xlink" width="300pt" height="300pt" viewBox="0 0 300 300" version="1.1">
<defs>
<g>
<symbol overflow="visible" id="glyph0-0">
<path style="stroke:none;" d="M 0.546875 1.9375 L 0.546875 -7.75 L 6.046875 -7.75 L 6.046875 1.9375 Z M 1.171875 1.328125 L 5.4375 1.328125 L 5.4375 -7.140625 L 1.171875 -7.140625 Z M 1.171875 1.328125 "/>
</symbol>
<symbol overflow="visible" id="glyph0-1">
<path style="stroke:none;" d="M 1.078125 -8.015625 L 2.546875 -8.015625 L 6.09375 -1.3125 L 6.09375 -8.015625 L 7.15625 -8.015625 L 7.15625 0 L 5.6875 0 L 2.125 -6.703125 L 2.125 0 L 1.078125 0 Z M 1.078125 -8.015625 "/>
</symbol>
<symbol overflow="visible" id="glyph0-2">
<path style="stroke:none;" d="M 4.328125 -7.28125 C 3.546875 -7.28125 2.921875 -6.984375 2.453125 -6.390625 C 1.992188 -5.804688 1.765625 -5.007812 1.765625 -4 C 1.765625 -2.988281 1.992188 -2.1875 2.453125 -1.59375 C 2.921875 -1.007812 3.546875 -0.71875 4.328125 -0.71875 C 5.117188 -0.71875 5.742188 -1.007812 6.203125 -1.59375 C 6.660156 -2.1875 6.890625 -2.988281 6.890625 -4 C 6.890625 -5.007812 6.660156 -5.804688 6.203125 -6.390625 C 5.742188 -6.984375 5.117188 -7.28125 4.328125 -7.28125 Z M 4.328125 -8.171875 C 5.453125 -8.171875 6.351562 -7.789062 7.03125 -7.03125 C 7.707031 -6.28125 8.046875 -5.269531 8.046875 -4 C 8.046875 -2.738281 7.707031 -1.726562 7.03125 -0.96875 C 6.351562 -0.21875 5.453125 0.15625 4.328125 0.15625 C 3.203125 0.15625 2.300781 -0.21875 1.625 -0.96875 C 0.957031 -1.71875 0.625 -2.726562 0.625 -4 C 0.625 -5.269531 0.957031 -6.28125 1.625 -7.03125 C 2.300781 -7.789062 3.203125 -8.171875 4.328125 -8.171875 Z M 4.328125 -8.171875 "/>
</symbol>
</g>
</defs>
<g id="surface52901">
<rect x="0" y="0" width="300" height="300" style="fill:rgb(100%,100%,100%);fill-opacity:1;stroke:none;"/>
<path style="fill:none;stroke-width:1.2;stroke-linecap:butt;stroke-linejoin:miter;stroke:rgb(0%,0%,0%);stroke-opacity:1;stroke-miterlimit:10;" d="M 102.53125 118.988281 L 89.6875 121.0625 "/>
<path style="fill:none;stroke-width:1.2;stroke-linecap:butt;stroke-linejoin:miter;stroke:rgb(0%,0%,100%);stroke-opacity:1;stroke-miterlimit:10;" d="M 89.6875 121.0625 L 76.847656 123.140625 "/>
<path style="fill:none;stroke-width:1.2;stroke-linecap:butt;stroke-linejoin:miter;stroke:rgb(0%,0%,100%);stroke-opacity:1;stroke-miterlimit:10;" d="M 76.847656 123.140625 L 67.621094 113.972656 "/>
<path style="fill:none;stroke-width:1.2;stroke-linecap:butt;stroke-linejoin:miter;stroke:rgb(0%,0%,0%);stroke-opacity:1;stroke-miterlimit:10;" d="M 67.621094 113.972656 L 58.390625 104.808594 "/>
<path style="fill:none;stroke-width:1.2;stroke-linecap:butt;stroke-linejoin:miter;stroke:rgb(0%,0%,0%);stroke-opacity:1;stroke-miterlimit:10;" d="M 65.113281 146.359375 L 70.980469 134.75 "/>
<path style="fill:none;stroke-width:1.2;stroke-linecap:butt;stroke-linejoin:miter;stroke:rgb(0%,0%,100%);stroke-opacity:1;stroke-miterlimit:10;" d="M 70.980469 134.75 L 76.847656 123.140625 "/>
<path style=" stroke:none;fill-rule:nonzero;fill:rgb(100%,100%,100%);fill-opacity:1;" d="M 72.847656 116.640625 L 80.847656 116.640625 L 80.847656 129.640625 L 72.847656 129.640625 Z M 72.847656 116.640625 "/>
<g style="fill:rgb(0%,0%,100%);fill-opacity:1;">
  <use xlink:href="#glyph0-1" x="72.847656" y="126.541992"/>
</g>
<path style="fill:none;stroke-width:1.2;stroke-linecap:butt;stroke-linejoin:miter;stroke:rgb(0%,0%,0%);stroke-opacity:1;stroke-miterlimit:10;" d="M 58.390625 104.808594 L 35.25 116.695312 "/>
<path style="fill:none;stroke-width:1.2;stroke-linecap:butt;stroke-linejoin:miter;stroke:rgb(0%,0%,0%);stroke-opacity:1;stroke-miterlimit:10;" d="M 58.875 111.441406 L 40.359375 120.949219 "/>
<path style="fill:none;stroke-width:1.2;stroke-linecap:butt;stroke-linejoin:miter;stroke:rgb(0%,0%,0%);stroke-opacity:1;stroke-miterlimit:10;" d="M 35.25 116.695312 L 39.40625 142.375 "/>
<path style="fill:none;stroke-width:1.2;stroke-linecap:butt;stroke-linejoin:miter;stroke:rgb(0%,0%,0%);stroke-opacity:1;stroke-miterlimit:10;" d="M 39.40625 142.375 L 65.113281 146.359375 "/>
<path style="fill:none;stroke-width:1.2;stroke-linecap:butt;stroke-linejoin:miter;stroke:rgb(0%,0%,0%);stroke-opacity:1;stroke-miterlimit:10;" d="M 42.914062 136.726562 L 63.480469 139.914062 "/>
<path style="fill:none;stroke-width:1.2;stroke-linecap:butt;stroke-linejoin:miter;stroke:rgb(0%,0%,0%);stroke-opacity:1;stroke-miterlimit:10;" d="M 65.113281 146.359375 L 77 169.5 "/>
<path style="fill:none;stroke-width:1.2;stroke-linecap:butt;stroke-linejoin:miter;stroke:rgb(0%,0%,0%);stroke-opacity:1;stroke-miterlimit:10;" d="M 74.429688 167.84375 L 67.382812 178.777344 "/>
<path style="fill:none;stroke-width:1.2;stroke-linecap:butt;stroke-linejoin:miter;stroke:rgb(100%,0%,0%);stroke-opacity:1;stroke-miterlimit:10;" d="M 67.382812 178.777344 L 60.332031 189.707031 "/>
<path style="fill:none;stroke-width:1.2;stroke-linecap:butt;stroke-linejoin:miter;stroke:rgb(0%,0%,0%);stroke-opacity:1;stroke-miterlimit:10;" d="M 79.574219 171.160156 L 72.527344 182.09375 "/>
<path style="fill:none;stroke-width:1.2;stroke-linecap:butt;stroke-linejoin:miter;stroke:rgb(100%,0%,0%);stroke-opacity:1;stroke-miterlimit:10;" d="M 72.527344 182.09375 L 65.476562 193.027344 "/>
<path style="fill:none;stroke-width:1.2;stroke-linecap:butt;stroke-linejoin:miter;stroke:rgb(0%,0%,0%);stroke-opacity:1;stroke-miterlimit:10;" d="M 77 169.5 L 89.992188 170.140625 "/>
<path style="fill:none;stroke-width:1.2;stroke-linecap:butt;stroke-linejoin:miter;stroke:rgb(0%,0%,100%);stroke-opacity:1;stroke-miterlimit:10;" d="M 89.992188 170.140625 L 102.984375 170.777344 "/>
<path style=" stroke:none;fill-rule:nonzero;fill:rgb(100%,100%,100%);fill-opacity:1;" d="M 53.90625 184.867188 L 62.90625 184.867188 L 62.90625 197.867188 L 53.90625 197.867188 Z M 53.90625 184.867188 "/>
<g style="fill:rgb(100%,0%,0%);fill-opacity:1;">
  <use xlink:href="#glyph0-2" x="53.90625" y="194.768555"/>
</g>
<path style="fill:none;stroke-width:1.2;stroke-linecap:butt;stroke-linejoin:miter;stroke:rgb(0%,0%,100%);stroke-opacity:1;stroke-miterlimit:10;" d="M 102.984375 170.777344 L 108.929688 182.347656 "/>
<path style="fill:none;stroke-width:1.2;stroke-linecap:butt;stroke-linejoin:miter;stroke:rgb(0%,0%,0%);stroke-opacity:1;stroke-miterlimit:10;" d="M 108.929688 182.347656 L 114.875 193.917969 "/>
<path style="fill:none;stroke-width:1.2;stroke-linecap:butt;stroke-linejoin:miter;stroke:rgb(0%,0%,0%);stroke-opacity:1;stroke-miterlimit:10;" d="M 117.082031 148.910156 L 110.035156 159.84375 "/>
<path style="fill:none;stroke-width:1.2;stroke-linecap:butt;stroke-linejoin:miter;stroke:rgb(0%,0%,100%);stroke-opacity:1;stroke-miterlimit:10;" d="M 110.035156 159.84375 L 102.984375 170.777344 "/>
<path style=" stroke:none;fill-rule:nonzero;fill:rgb(100%,100%,100%);fill-opacity:1;" d="M 98.984375 164.277344 L 106.984375 164.277344 L 106.984375 177.277344 L 98.984375 177.277344 Z M 98.984375 164.277344 "/>
<g style="fill:rgb(0%,0%,100%);fill-opacity:1;">
  <use xlink:href="#glyph0-1" x="98.984375" y="174.178711"/>
</g>
<path style="fill:none;stroke-width:1.2;stroke-linecap:butt;stroke-linejoin:miter;stroke:rgb(0%,0%,0%);stroke-opacity:1;stroke-miterlimit:10;" d="M 114.875 193.917969 L 140.859375 195.191406 "/>
<path style="fill:none;stroke-width:1.2;stroke-linecap:butt;stroke-linejoin:miter;stroke:rgb(0%,0%,0%);stroke-opacity:1;stroke-miterlimit:10;" d="M 140.859375 195.191406 L 154.953125 173.328125 "/>
<path style="fill:none;stroke-width:1;stroke-linecap:butt;stroke-linejoin:miter;stroke:rgb(0%,0%,0%);stroke-opacity:1;stroke-miterlimit:10;" d="M 143.066406 150.1875 L 143.066406 150.1875 M 143.953125 153.050781 L 144.878906 152.578125 M 144.839844 155.917969 L 146.695312 154.964844 M 145.726562 158.785156 L 148.507812 157.355469 M 146.613281 161.652344 L 150.320312 159.746094 M 147.5 164.515625 L 152.136719 162.136719 M 148.382812 167.382812 L 153.949219 164.523438 M 149.269531 170.25 L 155.761719 166.914062 M 150.15625 173.117188 L 157.578125 169.304688 M 150.871094 175.425781 L 159.039062 171.230469 "/>
<path style="fill:none;stroke-width:1.2;stroke-linecap:butt;stroke-linejoin:miter;stroke:rgb(0%,0%,0%);stroke-opacity:1;stroke-miterlimit:10;" d="M 143.066406 150.1875 L 117.082031 148.910156 "/>
<path style="fill:none;stroke-width:1.2;stroke-linecap:butt;stroke-linejoin:miter;stroke:rgb(0%,0%,0%);stroke-opacity:1;stroke-miterlimit:10;" d="M 143.066406 150.1875 L 133.664062 125.929688 "/>
<path style="fill:none;stroke-width:1.2;stroke-linecap:butt;stroke-linejoin:miter;stroke:rgb(0%,0%,0%);stroke-opacity:1;stroke-miterlimit:10;" d="M 169.042969 148.738281 L 143.066406 150.1875 "/>
<path style="fill:none;stroke-width:1.2;stroke-linecap:butt;stroke-linejoin:miter;stroke:rgb(0%,0%,0%);stroke-opacity:1;stroke-miterlimit:10;" d="M 133.664062 125.929688 L 153.828125 109.492188 "/>
<path style="fill:none;stroke-width:1.2;stroke-linecap:butt;stroke-linejoin:miter;stroke:rgb(0%,0%,0%);stroke-opacity:1;stroke-miterlimit:10;" d="M 153.828125 109.492188 L 164.757812 116.539062 "/>
<path style="fill:none;stroke-width:1.2;stroke-linecap:butt;stroke-linejoin:miter;stroke:rgb(0%,0%,100%);stroke-opacity:1;stroke-miterlimit:10;" d="M 164.757812 116.539062 L 175.691406 123.585938 "/>
<path style="fill:none;stroke-width:1.2;stroke-linecap:butt;stroke-linejoin:miter;stroke:rgb(0%,0%,100%);stroke-opacity:1;stroke-miterlimit:10;" d="M 175.691406 123.585938 L 172.367188 136.164062 "/>
<path style="fill:none;stroke-width:1.2;stroke-linecap:butt;stroke-linejoin:miter;stroke:rgb(0%,0%,0%);stroke-opacity:1;stroke-miterlimit:10;" d="M 172.367188 136.164062 L 169.042969 148.738281 "/>
<path style="fill:none;stroke-width:1.2;stroke-linecap:butt;stroke-linejoin:miter;stroke:rgb(0%,0%,100%);stroke-opacity:1;stroke-miterlimit:10;" d="M 175.691406 123.585938 L 187.820312 118.886719 "/>
<path style="fill:none;stroke-width:1.2;stroke-linecap:butt;stroke-linejoin:miter;stroke:rgb(0%,0%,0%);stroke-opacity:1;stroke-miterlimit:10;" d="M 187.820312 118.886719 L 199.949219 114.183594 "/>
<path style=" stroke:none;fill-rule:nonzero;fill:rgb(100%,100%,100%);fill-opacity:1;" d="M 171.691406 117.085938 L 179.691406 117.085938 L 179.691406 130.085938 L 171.691406 130.085938 Z M 171.691406 117.085938 "/>
<g style="fill:rgb(0%,0%,100%);fill-opacity:1;">
  <use xlink:href="#glyph0-1" x="171.691406" y="126.987305"/>
</g>
<path style="fill:none;stroke-width:1.2;stroke-linecap:butt;stroke-linejoin:miter;stroke:rgb(0%,0%,0%);stroke-opacity:1;stroke-miterlimit:10;" d="M 199.949219 114.183594 L 220.222656 130.488281 "/>
<path style="fill:none;stroke-width:1.2;stroke-linecap:butt;stroke-linejoin:miter;stroke:rgb(0%,0%,0%);stroke-opacity:1;stroke-miterlimit:10;" d="M 220.222656 130.488281 L 216.238281 156.195312 "/>
<path style="fill:none;stroke-width:1.2;stroke-linecap:butt;stroke-linejoin:miter;stroke:rgb(0%,0%,0%);stroke-opacity:1;stroke-miterlimit:10;" d="M 225.871094 133.996094 L 222.683594 154.5625 "/>
<path style="fill:none;stroke-width:1.2;stroke-linecap:butt;stroke-linejoin:miter;stroke:rgb(0%,0%,0%);stroke-opacity:1;stroke-miterlimit:10;" d="M 244.476562 121.085938 L 220.222656 130.488281 "/>
<path style="fill:none;stroke-width:1.2;stroke-linecap:butt;stroke-linejoin:miter;stroke:rgb(0%,0%,0%);stroke-opacity:1;stroke-miterlimit:10;" d="M 216.238281 156.195312 L 236.507812 172.503906 "/>
<path style="fill:none;stroke-width:1.2;stroke-linecap:butt;stroke-linejoin:miter;stroke:rgb(0%,0%,0%);stroke-opacity:1;stroke-miterlimit:10;" d="M 236.507812 172.503906 L 260.765625 163.097656 "/>
<path style="fill:none;stroke-width:1.2;stroke-linecap:butt;stroke-linejoin:miter;stroke:rgb(0%,0%,0%);stroke-opacity:1;stroke-miterlimit:10;" d="M 236.722656 165.855469 L 256.128906 158.332031 "/>
<path style="fill:none;stroke-width:1.2;stroke-linecap:butt;stroke-linejoin:miter;stroke:rgb(0%,0%,0%);stroke-opacity:1;stroke-miterlimit:10;" d="M 260.765625 163.097656 L 264.75 137.390625 "/>
<path style="fill:none;stroke-width:1.2;stroke-linecap:butt;stroke-linejoin:miter;stroke:rgb(0%,0%,0%);stroke-opacity:1;stroke-miterlimit:10;" d="M 264.75 137.390625 L 244.476562 121.085938 "/>
<path style="fill:none;stroke-width:1.2;stroke-linecap:butt;stroke-linejoin:miter;stroke:rgb(0%,0%,0%);stroke-opacity:1;stroke-miterlimit:10;" d="M 258.886719 140.527344 L 242.667969 127.484375 "/>
</g>
</svg>

<svg xmlns="http://www.w3.org/2000/svg" xmlns:xlink="http://www.w3.org/1999/xlink" width="300pt" height="300pt" viewBox="0 0 300 300"><defs><symbol overflow="visible"><path d="M.547 1.938V-7.75h5.5v9.688zm.625-.61h4.266v-8.47H1.171zm0 0"/></symbol><symbol overflow="visible" id="a"><path d="M1.078-8.016h1.47l3.546 6.704v-6.704h1.062V0H5.688L2.124-6.703V0H1.078zm0 0"/></symbol><symbol overflow="visible" id="b"><path d="M4.328-7.28c-.78 0-1.406.296-1.875.89-.46.585-.687 1.382-.687 2.39 0 1.012.226 1.813.687 2.406.47.586 1.094.875 1.875.875.79 0 1.414-.288 1.875-.874.457-.593.688-1.394.688-2.406 0-1.008-.23-1.805-.687-2.39-.46-.594-1.086-.89-1.875-.89zm0-.892c1.125 0 2.024.383 2.703 1.14C7.708-6.28 8.048-5.27 8.048-4c0 1.262-.34 2.273-1.016 3.03C6.353-.22 5.454.157 4.33.157S2.3-.22 1.625-.97c-.668-.75-1-1.757-1-3.03 0-1.27.332-2.28 1-3.03.676-.76 1.578-1.142 2.703-1.142zm0 0"/></symbol></defs><g><path fill="#fff" d="M0 0h300v300H0z"/><path d="M102.53 118.988l-12.843 2.075" stroke-width="1.2" stroke="#000" stroke-miterlimit="10" fill="none"/><path d="M89.688 121.063l-12.84 2.078M76.848 123.14l-9.227-9.167" stroke-width="1.2" stroke="#00f" stroke-miterlimit="10" fill="none"/><path d="M67.62 113.973l-9.23-9.164M65.113 146.36l5.867-11.61" stroke-width="1.2" stroke="#000" stroke-miterlimit="10" fill="none"/><path d="M70.98 134.75l5.868-11.61" stroke-width="1.2" stroke="#00f" stroke-miterlimit="10" fill="none"/><path d="M72.848 116.64h8v13h-8zm0 0" fill="#fff"/><use xlink:href="#a" x="72.848" y="126.542" fill="#00f"/><path d="M58.39 104.81l-23.14 11.885M58.875 111.44l-18.516 9.51M35.25 116.695l4.156 25.68M39.406 142.375l25.707 3.984M42.914 136.727l20.566 3.187M65.113 146.36L77 169.5M74.43 167.844l-7.047 10.933" stroke-width="1.2" stroke="#000" stroke-miterlimit="10" fill="none"/><path d="M67.383 178.777l-7.05 10.93" stroke-width="1.2" stroke="#f00" stroke-miterlimit="10" fill="none"/><path d="M79.574 171.16l-7.047 10.934" stroke-width="1.2" stroke="#000" stroke-miterlimit="10" fill="none"/><path d="M72.527 182.094l-7.05 10.933" stroke-width="1.2" stroke="#f00" stroke-miterlimit="10" fill="none"/><path d="M77 169.5l12.992.64" stroke-width="1.2" stroke="#000" stroke-miterlimit="10" fill="none"/><path d="M89.992 170.14l12.992.637" stroke-width="1.2" stroke="#00f" stroke-miterlimit="10" fill="none"/><path d="M53.906 184.867h9v13h-9zm0 0" fill="#fff"/><use xlink:href="#b" x="53.906" y="194.769" fill="#f00"/><path d="M102.984 170.777l5.946 11.57" stroke-width="1.2" stroke="#00f" stroke-miterlimit="10" fill="none"/><path d="M108.93 182.348l5.945 11.57M117.082 148.91l-7.047 10.934" stroke-width="1.2" stroke="#000" stroke-miterlimit="10" fill="none"/><path d="M110.035 159.844l-7.05 10.933" stroke-width="1.2" stroke="#00f" stroke-miterlimit="10" fill="none"/><path d="M98.984 164.277h8v13h-8zm0 0" fill="#fff"/><use xlink:href="#a" x="98.984" y="174.179" fill="#00f"/><path d="M114.875 193.918l25.984 1.273M140.86 195.19l14.093-21.862" stroke-width="1.2" stroke="#000" stroke-miterlimit="10" fill="none"/><path d="M143.066 150.188m.887 2.863l.926-.472m-.04 3.34l1.855-.953m-.968 3.82l2.78-1.43m-1.894 4.297l3.707-1.906m-2.82 4.77l4.637-2.38m-3.754 5.247l5.566-2.86m-4.68 5.727l6.492-3.336m-5.606 6.203l7.422-3.812m-6.707 6.12l8.17-4.195" stroke="#000" stroke-miterlimit="10" fill="none"/><path d="M143.066 150.188l-25.984-1.278M143.066 150.188l-9.402-24.258M169.043 148.738l-25.977 1.45M133.664 125.93l20.164-16.438M153.828 109.492l10.93 7.047" stroke-width="1.2" stroke="#000" stroke-miterlimit="10" fill="none"/><path d="M164.758 116.54l10.933 7.046M175.69 123.586l-3.323 12.578" stroke-width="1.2" stroke="#00f" stroke-miterlimit="10" fill="none"/><path d="M172.367 136.164l-3.324 12.574" stroke-width="1.2" stroke="#000" stroke-miterlimit="10" fill="none"/><path d="M175.69 123.586l12.13-4.7" stroke-width="1.2" stroke="#00f" stroke-miterlimit="10" fill="none"/><path d="M187.82 118.887l12.13-4.703" stroke-width="1.2" stroke="#000" stroke-miterlimit="10" fill="none"/><path d="M171.69 117.086h8v13h-8zm0 0" fill="#fff"/><use xlink:href="#a" x="171.691" y="126.987" fill="#00f"/><path d="M199.95 114.184l20.273 16.304M220.223 130.488l-3.985 25.707M225.87 133.996l-3.186 20.566M244.477 121.086l-24.254 9.402M216.238 156.195l20.27 16.31M236.508 172.504l24.258-9.406M236.723 165.855l19.406-7.523M260.766 163.098l3.984-25.707M264.75 137.39l-20.273-16.304M258.887 140.527l-16.22-13.043" stroke-width="1.2" stroke="#000" stroke-miterlimit="10" fill="none"/></g></svg>
